static/logos/instacart-glyph-color.svg

<svg width="40" height="50" viewBox="0 0 40 50" fill="none" xmlns="http://www.w3.org/2000/svg">
<path d="M32.8542 8.31019C30.7458 8.31019 29.2417 9.22894 27.8542 11.2248L23.8542 16.9685V0.572693H14.3125V16.9685L10.3125 11.2248C8.92712 9.22894 7.42296 8.31019 5.31254 8.31019C2.12921 8.31019 0.0104609 10.6602 4.42425e-05 13.556C-0.00828908 16.0352 1.16046 17.6519 3.62504 19.2394L19.0834 29.1977L34.5417 19.2394C37.0062 17.6519 38.175 16.0352 38.1667 13.556C38.1583 10.6602 36.0375 8.31019 32.8542 8.31019Z" fill="#0AAD0A"/>
<path d="M19.0808 31.5837C28.2683 31.5837 35.7996 38.4421 35.7787 48.2837H2.38285C2.3641 38.4462 9.89326 31.5837 19.0808 31.5837Z" fill="#FF7009"/>
</svg>

<svg xmlns="http://www.w3.org/2000/svg" width="51.2" height="64" fill="none" viewBox="0 0 40 50"><path fill="#0AAD0A" d="M32.854 8.31c-2.108 0-3.612.919-5 2.915l-4 5.743V.573h-9.541v16.395l-4-5.743c-1.386-1.996-2.89-2.915-5-2.915C2.129 8.31.01 10.66 0 13.556c-.008 2.48 1.16 4.096 3.625 5.683l15.458 9.959 15.459-9.959c2.464-1.587 3.633-3.204 3.625-5.683-.009-2.896-2.13-5.246-5.313-5.246Z"/><path fill="#FF7009" d="M19.08 31.584c9.188 0 16.72 6.858 16.699 16.7H2.383c-.019-9.838 7.51-16.7 16.698-16.7Z"/></svg>
